X: 34665
T: Road To Cashel, The
R: reel
M: 4/4
K: Edorian
|FEED ~E3B|FE~E2 dFAB|FEED E2BA|FDDA B/c/d Ac|
BEED ~E3B|FE~E2 dFAB|FEED E2BA|FDDA B/c/d Ac|
~B2d e2fe|dfab afed|Bdge ~f3e|dBAF BE~E2|
~B2d e2fe|dfab afef|bf~f2 afef|bfaf edBA||

